X:1
T:Stewball
M:4/4
L:1/16
K:G
 E3 G| G8 z4 _B3 =B| G2 B6 z4 E2G2| _B2 G6 z2 z E G4| G8 z4| E3 G|\
 G8 z4 e3 e| d2 A6 z4 E3 G| _B2 G6 z4 B4| G4 c3 d G4|(3G5.3333335/4G5.3333335/4E5.3333335/4G5.3333335/4E5.3333335/4D5.3333335/4|\

M:2/4
 z4 G3 B|
M:4/4
 d4 d4 c3- B c3 d| B4 G8 E3 G| G12 E3 G| G12||

